static/fa/svgs/solid/bell-slash.svg

<svg xmlns="http://www.w3.org/2000/svg" viewBox="0 0 640 512"><!--! Font Awesome Free 6.1.1 by @fontawesome - https://fontawesome.com License - https://fontawesome.com/license/free (Icons: CC BY 4.0, Fonts: SIL OFL 1.1, Code: MIT License) Copyright 2022 Fonticons, Inc.--><path d="M186 120.5c23-35.12 59.4-60.66 102-69.3V32c0-17.67 14.3-32 32-32s32 14.33 32 32v19.2c73 14.83 128 79.4 128 156.8v18.8c0 47.1 17.3 92.4 48.5 127.6l7.4 8.3c8.4 9.5 10.5 22.9 5.3 34.4-1.1.4-.4 0-.6 1.3l90.2 70.7c10.4 8.2 12.3 23.3 4.1 33.7-8.2 10.4-23.3 12.3-33.7 4.1L9.196 42.89C-1.236 34.71-3.065 19.63 5.112 9.196 13.29-1.236 28.37-3.065 38.81 5.112L186 120.5zm-26 106.3v-4.7L406.2 416H128c-12.6 0-24.9-7.4-29.19-18.9-5.16-11.5-3.1-24.9 5.29-34.4l7.4-8.3c31.2-35.2 48.5-80.5 48.5-127.6zM320 512c-17 0-33.3-6.7-45.3-18.7S256 464.1 256 448h128c0 16.1-6.7 33.3-18.7 45.3S336.1 512 320 512z"/></svg>

<svg xmlns="http://www.w3.org/2000/svg" viewBox="0 0 640 512"><!--! Font Awesome Free 6.1.1 by @fontawesome - https://fontawesome.com License - https://fontawesome.com/license/free (Icons: CC BY 4.0, Fonts: SIL OFL 1.1, Code: MIT License) Copyright 2022 Fonticons, Inc. --><path d="M186 120.5C209 85.38 245.4 59.84 288 51.2V32C288 14.33 302.3 .0003 320 .0003C337.7 .0003 352 14.33 352 32V51.2C425 66.03 480 130.6 480 208V226.8C480 273.9 497.3 319.2 528.5 354.4L535.9 362.7C544.3 372.2 546.4 385.6 541.2 397.1C540.1 397.5 540.8 397.1 540.6 398.4L630.8 469.1C641.2 477.3 643.1 492.4 634.9 502.8C626.7 513.2 611.6 515.1 601.2 506.9L9.196 42.89C-1.236 34.71-3.065 19.63 5.112 9.196C13.29-1.236 28.37-3.065 38.81 5.112L186 120.5zM160 226.8V222.1L406.2 416H128C115.4 416 103.1 408.6 98.81 397.1C93.65 385.6 95.71 372.2 104.1 362.7L111.5 354.4C142.7 319.2 160 273.9 160 226.8V226.8zM320 512C303 512 286.7 505.3 274.7 493.3C262.7 481.3 256 464.1 256 448H384C384 464.1 377.3 481.3 365.3 493.3C353.3 505.3 336.1 512 320 512z"/></svg>
